;FLAVOR:Marlin
;TIME:6666
;Filament used: 0m
;Layer height: 0.1
;MINX:2.14748e+06
;MINY:2.14748e+06
;MINZ:2.14748e+06
;MAXX:-2.14748e+06
;MAXY:-2.14748e+06
;MAXZ:-2.14748e+06

;Generated with Cura_SteamEngine 4.8
M140 S60
M105
M190 S60
M104 S215
M105
M109 S215
M82 ;absolute extrusion mode
M201 X500.00 Y500.00 Z100.00 E5000.00 ;Setup machine max acceleration
M203 X500.00 Y500.00 Z10.00 E50.00 ;Setup machine max feedrate
M204 P500.00 R1000.00 T500.00 ;Setup Print/Retract/Travel acceleration
M205 X8.00 Y8.00 Z0.40 E5.00 ;Setup Jerk
M220 S100 ;Reset Feedrate
M221 S100 ;Reset Flowrate

G28 ;Home

G92 E0 ;Reset Extruder
G1 Z2.0 F3000 ;Move Z Axis up
G1 X10.1 Y20 Z0.28 F5000.0 ;Move to start position
G1 X10.1 Y200.0 Z0.28 F1500.0 E15 ;Draw the first line
G1 X10.4 Y200.0 Z0.28 F5000.0 ;Move to side a little
G1 X10.4 Y20 Z0.28 F1500.0 E30 ;Draw the second line
G92 E0 ;Reset Extruder
G1 Z2.0 F3000 ;Move Z Axis up

G92 E0
G92 E0
G1 F1500 E-6.5
;LAYER_COUNT:68
;LAYER:0
M107
G0 F3600 X137.25 Y137.371 Z0.3
;TYPE:SKIRT
G1 F1500 E0
G1 F1800 X137.72 Y136.915 E0.01232
G1 X138.137 Y136.538 E0.02289
G1 X138.759 Y136.016 E0.03817
G1 X139.146 Y135.711 E0.04744
G1 X139.674 Y135.322 E0.05977
G1 X140.124 Y135.015 E0.07002
G1 X140.676 Y134.665 E0.08231
G1 X141.101 Y134.414 E0.0916
G1 X141.677 Y134.098 E0.10396
G1 X142.172 Y133.848 E0.11439
G1 X142.764 Y133.576 E0.12664
G1 X143.2 Y133.392 E0.13555
G1 X143.811 Y133.155 E0.14787
G1 X144.301 Y132.983 E0.15764
G1 X144.927 Y132.787 E0.16998
G1 X145.452 Y132.643 E0.18022
G1 X146.242 Y132.455 E0.1955
G1 X146.773 Y132.348 E0.20569
G1 X147.419 Y132.241 E0.218
G1 X147.92 Y132.174 E0.22751
G1 X148.572 Y132.109 E0.23984
G1 X149.084 Y132.075 E0.24949
G1 X149.738 Y132.053 E0.2618
G1 X150.275 Y132.054 E0.2719
G1 X150.928 Y132.077 E0.28419
G1 X151.427 Y132.11 E0.2936
G1 X152.079 Y132.175 E0.30592
G1 X152.568 Y132.24 E0.3152
G1 X153.214 Y132.346 E0.32751
G1 X153.748 Y132.453 E0.33776
G1 X154.538 Y132.64 E0.35303
G1 X155.072 Y132.786 E0.36344
G1 X155.698 Y132.982 E0.37578
G1 X156.18 Y133.151 E0.38539
G1 X156.793 Y133.388 E0.39775
G1 X157.261 Y133.587 E0.40732
G1 X157.852 Y133.861 E0.41957
G1 X158.328 Y134.101 E0.4296
G1 X158.903 Y134.417 E0.44194
G1 X159.323 Y134.666 E0.45113
G1 X159.875 Y135.016 E0.46342
G1 X160.307 Y135.31 E0.47325
G1 X160.834 Y135.696 E0.48554
G1 X161.239 Y136.014 E0.49523
G1 X161.861 Y136.536 E0.5105
G1 X162.267 Y136.901 E0.52077
G1 X162.739 Y137.357 E0.53311
G1 X163.113 Y137.745 E0.54325
G1 X163.551 Y138.231 E0.55556
G1 X163.882 Y138.624 E0.56522
G1 X164.288 Y139.139 E0.57756
G1 X164.584 Y139.54 E0.58693
G1 X164.955 Y140.078 E0.59923
G1 X165.237 Y140.517 E0.60904
G1 X165.572 Y141.08 E0.62137
G1 X165.838 Y141.565 E0.63177
G1 X166.204 Y142.293 E0.6471
G1 X166.423 Y142.769 E0.65695
G1 X166.677 Y143.372 E0.66926
G1 X166.861 Y143.851 E0.67891
G1 X167.075 Y144.47 E0.69123
G1 X167.231 Y144.976 E0.70119
G1 X167.402 Y145.606 E0.71347
G1 X167.517 Y146.092 E0.72287
G1 X167.648 Y146.735 E0.73521
G1 X167.734 Y147.241 E0.74487
G1 X167.822 Y147.888 E0.75715
G1 X167.875 Y148.403 E0.76689
G1 X167.92 Y149.056 E0.7792
G1 X167.938 Y149.582 E0.7891
G1 X167.939 Y150.396 E0.80441
G1 X167.92 Y150.943 E0.81471
G1 X167.875 Y151.595 E0.827
G1 X167.823 Y152.108 E0.8367
G1 X167.735 Y152.756 E0.849
G1 X167.65 Y153.258 E0.85858
G1 X167.519 Y153.903 E0.87096
G1 X167.396 Y154.419 E0.88094
G1 X167.223 Y155.048 E0.89321
G1 X167.074 Y155.529 E0.90268
G1 X166.86 Y156.148 E0.915
G1 X166.676 Y156.627 E0.92465
G1 X166.422 Y157.23 E0.93696
G1 X166.212 Y157.686 E0.9464
G1 X165.849 Y158.413 E0.96169
G1 X165.574 Y158.918 E0.97251
G1 X165.239 Y159.481 E0.98483
G1 X164.963 Y159.911 E0.99444
G1 X164.591 Y160.452 E1.00679
G1 X164.28 Y160.874 E1.01665
G1 X163.874 Y161.387 E1.02896
G1 X163.541 Y161.78 E1.03865
G1 X163.102 Y162.265 E1.05095
G1 X162.75 Y162.629 E1.06048
G1 X162.28 Y163.085 E1.0728
G1 X161.863 Y163.462 E1.08337
G1 X161.241 Y163.984 E1.09865
G1 X160.854 Y164.289 E1.10791
G1 X160.326 Y164.678 E1.12025
G1 X159.876 Y164.985 E1.1305
G1 X159.324 Y165.335 E1.14279
G1 X158.899 Y165.586 E1.15208
G1 X158.323 Y165.902 E1.16444
G1 X157.828 Y166.152 E1.17487
G1 X157.236 Y166.424 E1.18712
G1 X156.8 Y166.608 E1.19602
G1 X156.189 Y166.845 E1.20835
G1 X155.699 Y167.017 E1.21812
G1 X155.073 Y167.213 E1.23046
G1 X154.548 Y167.357 E1.2407
G1 X153.758 Y167.545 E1.25597
G1 X153.227 Y167.652 E1.26616
G1 X152.581 Y167.759 E1.27848
G1 X152.08 Y167.826 E1.28799
G1 X151.428 Y167.891 E1.30031
G1 X150.916 Y167.925 E1.30997
G1 X150.262 Y167.947 E1.32228
G1 X149.725 Y167.946 E1.33238
G1 X149.072 Y167.923 E1.34467
G1 X148.573 Y167.89 E1.35407
G1 X147.921 Y167.825 E1.3664
G1 X147.432 Y167.76 E1.37568
G1 X146.786 Y167.654 E1.38799
G1 X146.252 Y167.547 E1.39824
G1 X145.462 Y167.36 E1.41351
G1 X144.928 Y167.214 E1.42392
G1 X144.302 Y167.018 E1.43626
G1 X143.82 Y166.849 E1.44587
G1 X143.207 Y166.612 E1.45823
G1 X142.739 Y166.413 E1.4678
G1 X142.148 Y166.139 E1.48005
G1 X141.672 Y165.899 E1.49008
G1 X141.097 Y165.583 E1.50242
G1 X140.677 Y165.334 E1.51161
G1 X140.125 Y164.984 E1.5239
G1 X139.691 Y164.688 E1.53378
G1 X139.163 Y164.301 E1.5461
G1 X138.76 Y163.985 E1.55573
G1 X138.138 Y163.463 E1.571
G1 X137.732 Y163.098 E1.58127
G1 X137.26 Y162.642 E1.59362
G1 X136.886 Y162.254 E1.60376
G1 X136.448 Y161.768 E1.61606
G1 X136.115 Y161.373 E1.62578
G1 X135.71 Y160.859 E1.63809
G1 X135.417 Y160.463 E1.64736
G1 X135.045 Y159.924 E1.65968
G1 X134.762 Y159.482 E1.66955
G1 X134.427 Y158.919 E1.68187
G1 X134.159 Y158.43 E1.69236
G1 X133.794 Y157.703 E1.70766
G1 X133.577 Y157.231 E1.71743
G1 X133.323 Y156.628 E1.72974
G1 X133.139 Y156.149 E1.73939
G1 X132.925 Y155.53 E1.75171
G1 X132.769 Y155.024 E1.76167
G1 X132.598 Y154.394 E1.77395
G1 X132.483 Y153.906 E1.78339
G1 X132.352 Y153.262 E1.79575
G1 X132.266 Y152.757 E1.80538
G1 X132.178 Y152.109 E1.81768
G1 X132.126 Y151.597 E1.82737
G1 X132.081 Y150.946 E1.83964
G1 X132.062 Y150.418 E1.84958
G1 X132.061 Y149.604 E1.86489
G1 X132.08 Y149.057 E1.87519
G1 X132.125 Y148.405 E1.88748
G1 X132.177 Y147.892 E1.89718
G1 X132.265 Y147.244 E1.90948
G1 X132.35 Y146.742 E1.91906
G1 X132.481 Y146.097 E1.93144
G1 X132.604 Y145.581 E1.94142
G1 X132.777 Y144.952 E1.95369
G1 X132.922 Y144.482 E1.96294
G1 X133.135 Y143.863 E1.97525
G1 X133.327 Y143.363 E1.98533
G1 X133.582 Y142.76 E1.99764
G1 X133.789 Y142.31 E2.00696
G1 X134.153 Y141.582 E2.02227
G1 X134.425 Y141.085 E2.03293
G1 X134.759 Y140.523 E2.04523
G1 X135.037 Y140.089 E2.05492
G1 X135.409 Y139.548 E2.06727
G1 X135.72 Y139.126 E2.07713
G1 X136.126 Y138.613 E2.08944
G1 X136.459 Y138.22 E2.09913
G1 X136.898 Y137.735 E2.11143
G1 X137.25 Y137.371 E2.12096
G0 F3600 X137.528 Y137.658
G1 F1800 X137.998 Y137.202 E2.13328
G1 X138.394 Y136.845 E2.14331
G1 X139.016 Y136.323 E2.15858
G1 X139.384 Y136.033 E2.16739
G1 X139.912 Y135.644 E2.17973
G1 X140.338 Y135.352 E2.18944
G1 X140.89 Y135.002 E2.20174
G1 X141.294 Y134.764 E2.21056
G1 X141.87 Y134.448 E2.22292
G1 X142.339 Y134.212 E2.23279
G1 X142.931 Y133.94 E2.24505
G1 X143.345 Y133.765 E2.2535
G1 X143.956 Y133.528 E2.26583
G1 X144.421 Y133.365 E2.2751
G1 X145.047 Y133.169 E2.28744
G1 X145.545 Y133.032 E2.29715
G1 X146.335 Y132.844 E2.31243
G1 X146.839 Y132.742 E2.3221
G1 X147.485 Y132.635 E2.33442
G1 X147.96 Y132.573 E2.34343
G1 X148.612 Y132.508 E2.35576
G1 X149.097 Y132.475 E2.3649
G1 X149.751 Y132.453 E2.37721
G1 X150.26 Y132.454 E2.38678
G1 X150.913 Y132.477 E2.39907
G1 X151.387 Y132.509 E2.40801
G1 X152.039 Y132.574 E2.42034
G1 X152.503 Y132.635 E2.42914
G1 X153.149 Y132.741 E2.44145
G1 X153.656 Y132.842 E2.45118
G1 X154.446 Y133.029 E2.46645
G1 X154.952 Y133.168 E2.47632
G1 X155.578 Y133.364 E2.48866
G1 X156.036 Y133.524 E2.49778
G1 X156.649 Y133.761 E2.51015
G1 X157.093 Y133.949 E2.51922
G1 X157.684 Y134.223 E2.53147
G1 X158.135 Y134.452 E2.54099
G1 X158.71 Y134.768 E2.55333
G1 X159.109 Y135.003 E2.56204
G1 X159.661 Y135.353 E2.57433
G1 X160.071 Y135.633 E2.58367
G1 X160.598 Y136.019 E2.59596
G1 X160.982 Y136.321 E2.60515
G1 X161.604 Y136.843 E2.62042
G1 X161.989 Y137.189 E2.63016
G1 X162.461 Y137.645 E2.64251
G1 X162.816 Y138.013 E2.65212
G1 X163.254 Y138.499 E2.66443
G1 X163.568 Y138.872 E2.6736
G1 X163.974 Y139.387 E2.68594
G1 X164.255 Y139.767 E2.69483
G1 X164.626 Y140.305 E2.70712
G1 X164.893 Y140.722 E2.71644
G1 X165.228 Y141.285 E2.72876
G1 X165.48 Y141.745 E2.73862
G1 X165.846 Y142.473 E2.75395
G1 X166.055 Y142.924 E2.7633
G1 X166.309 Y143.527 E2.77561
G1 X166.483 Y143.982 E2.78477
G1 X166.697 Y144.601 E2.79709
G1 X166.845 Y145.081 E2.80654
G1 X167.016 Y145.711 E2.81882
G1 X167.125 Y146.172 E2.82773
G1 X167.256 Y146.815 E2.84008
G1 X167.337 Y147.295 E2.84923
G1 X167.425 Y147.942 E2.86151
G1 X167.475 Y148.43 E2.87074
G1 X167.52 Y149.083 E2.88306
G1 X167.538 Y149.583 E2.89247
G1 X167.539 Y150.397 E2.90778
G1 X167.521 Y150.916 E2.91755
G1 X167.476 Y151.568 E2.92984
G1 X167.427 Y152.054 E2.93903
G1 X167.339 Y152.702 E2.95133
G1 X167.258 Y153.179 E2.96043
G1 X167.127 Y153.824 E2.97281
G1 X167.01 Y154.313 E2.98227
G1 X166.837 Y154.942 E2.99454
G1 X166.696 Y155.398 E3.00352
G1 X166.482 Y156.017 E3.01584
G1 X166.308 Y156.472 E3.025
G1 X166.054 Y157.075 E3.03731
G1 X165.855 Y157.508 E3.04627
G1 X165.492 Y158.235 E3.06156
G1 X165.23 Y158.713 E3.07181
G1 X164.895 Y159.276 E3.08414
G1 X164.634 Y159.685 E3.09326
G1 X164.262 Y160.226 E3.10561
G1 X163.967 Y160.625 E3.11495
G1 X163.561 Y161.138 E3.12725
G1 X163.244 Y161.512 E3.13648
G1 X162.805 Y161.997 E3.14878
G1 X162.472 Y162.342 E3.1578
G1 X162.002 Y162.798 E3.17012
G1 X161.606 Y163.155 E3.18015
G1 X160.984 Y163.677 E3.19542
G1 X160.616 Y163.967 E3.20424
G1 X160.088 Y164.356 E3.21657
G1 X159.662 Y164.648 E3.22629
G1 X159.11 Y164.998 E3.23858
G1 X158.706 Y165.236 E3.2474
G1 X158.13 Y165.552 E3.25976
G1 X157.661 Y165.788 E3.26964
G1 X157.069 Y166.06 E3.28189
G1 X156.655 Y166.235 E3.29035
G1 X156.044 Y166.472 E3.30267
G1 X155.579 Y166.635 E3.31194
G1 X154.953 Y166.831 E3.32428
G1 X154.455 Y166.968 E3.334
G1 X153.665 Y167.156 E3.34927
G1 X153.161 Y167.258 E3.35895
G1 X152.515 Y167.365 E3.37126
G1 X152.04 Y167.427 E3.38027
G1 X151.388 Y167.492 E3.3926
G1 X150.903 Y167.525 E3.40174
G1 X150.249 Y167.547 E3.41405
G1 X149.74 Y167.546 E3.42363
G1 X149.087 Y167.523 E3.43592
G1 X148.613 Y167.491 E3.44485
G1 X147.961 Y167.426 E3.45718
G1 X147.497 Y167.365 E3.46598
G1 X146.851 Y167.259 E3.4783
G1 X146.344 Y167.158 E3.48802
G1 X145.554 Y166.971 E3.50329
G1 X145.048 Y166.832 E3.51316
G1 X144.422 Y166.636 E3.5255
G1 X143.964 Y166.476 E3.53463
G1 X143.351 Y166.239 E3.54699
G1 X142.907 Y166.051 E3.55606
G1 X142.316 Y165.777 E3.56831
G1 X141.865 Y165.548 E3.57783
G1 X141.29 Y165.232 E3.59017
G1 X140.891 Y164.997 E3.59888
G1 X140.339 Y164.647 E3.61117
G1 X139.927 Y164.365 E3.62057
G1 X139.399 Y163.978 E3.63288
G1 X139.017 Y163.678 E3.64202
G1 X138.395 Y163.156 E3.65729
G1 X138.01 Y162.81 E3.66703
G1 X137.538 Y162.354 E3.67937
G1 X137.183 Y161.986 E3.68899
G1 X136.745 Y161.5 E3.7013
G1 X136.43 Y161.126 E3.7105
G1 X136.025 Y160.612 E3.72281
G1 X135.747 Y160.235 E3.73162
G1 X135.375 Y159.696 E3.74394
G1 X135.106 Y159.277 E3.7533
G1 X134.771 Y158.714 E3.76563
G1 X134.517 Y158.25 E3.77558
G1 X134.152 Y157.523 E3.79088
G1 X133.945 Y157.076 E3.80014
G1 X133.691 Y156.473 E3.81245
G1 X133.517 Y156.018 E3.82162
G1 X133.303 Y155.399 E3.83394
G1 X133.155 Y154.919 E3.84338
G1 X132.984 Y154.289 E3.85566
G1 X132.875 Y153.826 E3.86461
G1 X132.744 Y153.182 E3.87697
G1 X132.662 Y152.703 E3.88611
G1 X132.574 Y152.055 E3.89842
G1 X132.525 Y151.569 E3.9076
G1 X132.48 Y150.918 E3.91988
G1 X132.462 Y150.417 E3.92931
G1 X132.461 Y149.603 E3.94462
G1 X132.479 Y149.084 E3.95439
G1 X132.524 Y148.432 E3.96668
G1 X132.573 Y147.946 E3.97587
G1 X132.661 Y147.298 E3.98817
G1 X132.742 Y146.821 E3.99727
G1 X132.873 Y146.176 E4.00965
G1 X132.99 Y145.687 E4.01911
G1 X133.163 Y145.058 E4.03138
G1 X133.301 Y144.612 E4.04017
G1 X133.514 Y143.993 E4.05248
G1 X133.695 Y143.519 E4.06202
G1 X133.95 Y142.916 E4.07434
G1 X134.147 Y142.489 E4.08318
G1 X134.511 Y141.761 E4.09849
G1 X134.769 Y141.289 E4.10861
G1 X135.103 Y140.727 E4.12091
G1 X135.366 Y140.315 E4.1301
G1 X135.738 Y139.774 E4.14245
G1 X136.033 Y139.375 E4.15179
G1 X136.439 Y138.862 E4.1641
G1 X136.756 Y138.488 E4.17332
G1 X137.195 Y138.003 E4.18562
G1 X137.528 Y137.658 E4.19464
G0 F3600 X137.807 Y137.945
G1 F1800 X138.277 Y137.489 E4.20696
G1 X138.651 Y137.151 E4.21644
G1 X139.273 Y136.629 E4.23172
G1 X139.621 Y136.355 E4.24005
G1 X140.149 Y135.966 E4.25239
G1 X140.553 Y135.69 E4.26159
G1 X141.105 Y135.34 E4.27388
G1 X141.486 Y135.115 E4.28221
G1 X142.062 Y134.799 E4.29457
G1 X142.506 Y134.575 E4.30392
G1 X143.098 Y134.303 E4.31617
G1 X143.49 Y134.138 E4.32418
G1 X144.101 Y133.901 E4.3365
G1 X144.54 Y133.747 E4.34525
G1 X145.166 Y133.551 E4.35759
G1 X145.637 Y133.421 E4.36678
G1 X146.427 Y133.233 E4.38206
G1 X146.904 Y133.137 E4.39121
G1 X147.55 Y133.03 E4.40353
G1 X148 Y132.971 E4.41207
G1 X148.652 Y132.906 E4.42439
G1 X149.111 Y132.875 E4.43305
G1 X149.765 Y132.853 E4.44535
G1 X150.246 Y132.853 E4.4544
G1 X150.899 Y132.876 E4.46669
G1 X151.347 Y132.907 E4.47514
G1 X151.999 Y132.972 E4.48747
G1 X152.438 Y133.029 E4.49579
G1 X153.084 Y133.135 E4.50811
G1 X153.563 Y133.231 E4.5173
G1 X154.353 Y133.418 E4.53257
G1 X154.833 Y133.55 E4.54193
G1 X155.459 Y133.746 E4.55427
G1 X155.891 Y133.897 E4.56288
G1 X156.504 Y134.134 E4.57524
G1 X156.924 Y134.312 E4.58382
G1 X157.515 Y134.586 E4.59608
G1 X157.942 Y134.802 E4.60508
G1 X158.517 Y135.118 E4.61742
G1 X158.894 Y135.341 E4.62566
G1 X159.446 Y135.691 E4.63795
G1 X159.834 Y135.956 E4.64679
G1 X160.361 Y136.342 E4.65908
G1 X160.725 Y136.627 E4.66778
G1 X161.347 Y137.149 E4.68305
G1 X161.711 Y137.477 E4.69227
G1 X162.183 Y137.933 E4.70461
G1 X162.519 Y138.281 E4.71371
G1 X162.957 Y138.767 E4.72602
G1 X163.254 Y139.119 E4.73468
G1 X163.66 Y139.634 E4.74702
G1 X163.926 Y139.994 E4.75544
G1 X164.297 Y140.532 E4.76773
G1 X164.55 Y140.927 E4.77655
G1 X164.885 Y141.49 E4.78888
G1 X165.123 Y141.925 E4.7982
G1 X165.489 Y142.653 E4.81353
G1 X165.686 Y143.08 E4.82238
G1 X165.94 Y143.683 E4.83469
G1 X166.105 Y144.113 E4.84335
G1 X166.319 Y144.732 E4.85567
G1 X166.459 Y145.185 E4.86459
G1 X166.63 Y145.815 E4.87687
G1 X166.733 Y146.252 E4.88531
G1 X166.864 Y146.895 E4.89766
G1 X166.941 Y147.349 E4.90632
G1 X167.029 Y147.996 E4.9186
G1 X167.076 Y148.458 E4.92734
G1 X167.121 Y149.111 E4.93965
G1 X167.138 Y149.583 E4.94853
G1 X167.139 Y150.397 E4.96384
G1 X167.122 Y150.888 E4.97309
G1 X167.077 Y151.54 E4.98538
G1 X167.03 Y152 E4.99408
G1 X166.942 Y152.648 E5.00638
G1 X166.866 Y153.099 E5.01498
G1 X166.735 Y153.744 E5.02736
G1 X166.624 Y154.207 E5.03632
G1 X166.451 Y154.836 E5.04859
G1 X166.318 Y155.267 E5.05707
G1 X166.104 Y155.886 E5.06939
G1 X165.939 Y156.316 E5.07806
G1 X165.685 Y156.919 E5.09037
G1 X165.497 Y157.329 E5.09885
G1 X165.134 Y158.056 E5.11414
G1 X164.887 Y158.508 E5.12382
G1 X164.552 Y159.071 E5.13615
G1 X164.304 Y159.458 E5.14479
G1 X163.932 Y159.999 E5.15714
G1 X163.653 Y160.377 E5.16598
G1 X163.247 Y160.89 E5.17829
G1 X162.948 Y161.244 E5.187
G1 X162.509 Y161.729 E5.19931
G1 X162.193 Y162.055 E5.20785
G1 X161.723 Y162.511 E5.22017
G1 X161.349 Y162.849 E5.22965
G1 X160.727 Y163.371 E5.24493
G1 X160.379 Y163.645 E5.25326
G1 X159.851 Y164.034 E5.26559
G1 X159.447 Y164.31 E5.2748
G1 X158.895 Y164.66 E5.28709
G1 X158.514 Y164.885 E5.29541
G1 X157.938 Y165.201 E5.30777
G1 X157.494 Y165.425 E5.31713
G1 X156.902 Y165.697 E5.32938
G1 X156.51 Y165.862 E5.33738
G1 X155.899 Y166.099 E5.34971
G1 X155.46 Y166.253 E5.35846
G1 X154.834 Y166.449 E5.3708
G1 X154.363 Y166.579 E5.37999
G1 X153.573 Y166.767 E5.39527
G1 X153.096 Y166.863 E5.40442
G1 X152.45 Y166.97 E5.41674
G1 X152 Y167.029 E5.42527
G1 X151.348 Y167.094 E5.4376
G1 X150.889 Y167.125 E5.44625
G1 X150.235 Y167.147 E5.45856
G1 X149.754 Y167.147 E5.46761
G1 X149.101 Y167.124 E5.4799
G1 X148.653 Y167.093 E5.48835
G1 X148.001 Y167.028 E5.50067
G1 X147.562 Y166.971 E5.509
G1 X146.916 Y166.865 E5.52131
G1 X146.437 Y166.769 E5.5305
G1 X145.647 Y166.582 E5.54578
G1 X145.167 Y166.45 E5.55514
