;FLAVOR:Marlin
;TIME:6666
;Filament used: 0m
;Layer height: 0.1
;MINX:2.14748e+06
;MINY:2.14748e+06
;MINZ:2.14748e+06
;MAXX:-2.14748e+06
;MAXY:-2.14748e+06
;MAXZ:-2.14748e+06

;Generated with Cura_SteamEngine 4.8
M140 S60
M105
M190 S60
M104 S215
M105
M109 S215
M82 ;absolute extrusion mode
M201 X500.00 Y500.00 Z100.00 E5000.00 ;Setup machine max acceleration
M203 X500.00 Y500.00 Z10.00 E50.00 ;Setup machine max feedrate
M204 P500.00 R1000.00 T500.00 ;Setup Print/Retract/Travel acceleration
M205 X8.00 Y8.00 Z0.40 E5.00 ;Setup Jerk
M220 S100 ;Reset Feedrate
M221 S100 ;Reset Flowrate

G28 ;Home

G92 E0 ;Reset Extruder
G1 Z2.0 F3000 ;Move Z Axis up
G1 X10.1 Y20 Z0.28 F5000.0 ;Move to start position
G1 X10.1 Y200.0 Z0.28 F1500.0 E15 ;Draw the first line
G1 X10.4 Y200.0 Z0.28 F5000.0 ;Move to side a little
G1 X10.4 Y20 Z0.28 F1500.0 E30 ;Draw the second line
G92 E0 ;Reset Extruder
G1 Z2.0 F3000 ;Move Z Axis up

G92 E0
G92 E0
G1 F1500 E-6.5
;LAYER_COUNT:15
;LAYER:0
M107
G0 F3600 X95.115 Y142.41 Z0.3
;TYPE:SKIRT
G1 F1500 E0
G1 F1800 X95.805 Y142.026 E0.01485
G1 X96.53 Y141.714 E0.0297
G1 X97.283 Y141.476 E0.04456
G1 X98.057 Y141.317 E0.05942
G1 X98.842 Y141.236 E0.07426
G1 X99.248 Y141.225 E0.0819
G1 X102.247 Y141.225 E0.13832
G1 X103.036 Y141.265 E0.15318
G1 X103.816 Y141.384 E0.16802
G1 X104.581 Y141.582 E0.18288
G1 X105.321 Y141.856 E0.19773
G1 X106.03 Y142.204 E0.21258
G1 X106.701 Y142.622 E0.22745
G1 X107.325 Y143.105 E0.2423
G1 X107.898 Y143.648 E0.25715
G1 X108.413 Y144.247 E0.27201
G1 X108.864 Y144.895 E0.28686
G1 X109.248 Y145.586 E0.30173
G1 X109.56 Y146.311 E0.31657
G1 X109.797 Y147.064 E0.33142
G1 X109.956 Y147.838 E0.34629
G1 X110.037 Y148.623 E0.36113
G1 X110.047 Y149.025 E0.3687
G1 X110.047 Y150.914 E0.40423
G1 X110.007 Y151.703 E0.41909
G1 X109.888 Y152.483 E0.43393
G1 X109.835 Y152.689 E0.43793
G1 X109.899 Y153.523 E0.45367
G1 X109.903 Y156.743 E0.51424
G1 X109.864 Y157.532 E0.5291
G1 X109.745 Y158.313 E0.54396
G1 X109.549 Y159.078 E0.55881
G1 X109.275 Y159.818 E0.57366
G1 X108.929 Y160.528 E0.58851
G1 X108.512 Y161.199 E0.60337
G1 X108.03 Y161.824 E0.61822
G1 X107.487 Y162.397 E0.63307
G1 X106.888 Y162.913 E0.64794
G1 X106.241 Y163.365 E0.66279
G1 X105.551 Y163.749 E0.67764
G1 X104.826 Y164.062 E0.6925
G1 X104.073 Y164.3 E0.70735
G1 X103.3 Y164.461 E0.7222
G1 X102.514 Y164.542 E0.73707
G1 X102.107 Y164.553 E0.74472
G1 X100.164 Y164.554 E0.78127
G1 X99.375 Y164.514 E0.79613
G1 X98.595 Y164.395 E0.81098
G1 X97.83 Y164.198 E0.82584
G1 X97.089 Y163.924 E0.8407
G1 X96.38 Y163.577 E0.85555
G1 X95.71 Y163.16 E0.87039
G1 X95.582 Y163.061 E0.87343
G1 X95.03 Y162.714 E0.8857
G1 X94.407 Y162.228 E0.90056
G1 X93.916 Y161.784 E0.91301
G1 X93.344 Y161.239 E0.92788
G1 X92.831 Y160.639 E0.94272
G1 X92.381 Y159.991 E0.95756
G1 X91.999 Y159.3 E0.97242
G1 X91.688 Y158.574 E0.98727
G1 X91.453 Y157.82 E1.00213
G1 X91.295 Y157.046 E1.01699
G1 X91.206 Y155.885 E1.03889
G1 X91.202 Y153.063 E1.09198
G1 X91.241 Y152.274 E1.10684
G1 X91.359 Y151.494 E1.12167
G1 X91.454 Y151.124 E1.12886
G1 X91.449 Y150.918 E1.13274
G1 X91.448 Y149.029 E1.16827
G1 X91.488 Y148.24 E1.18313
G1 X91.607 Y147.46 E1.19797
G1 X91.804 Y146.695 E1.21283
G1 X92.078 Y145.954 E1.22769
G1 X92.425 Y145.245 E1.24254
G1 X92.842 Y144.575 E1.25739
G1 X93.325 Y143.95 E1.27224
G1 X93.868 Y143.377 E1.28709
G1 X94.467 Y142.862 E1.30195
G1 X95.115 Y142.41 E1.31681
G0 F3600 X95.498 Y142.646
G1 F1800 X96.18 Y142.291 E1.33128
G1 X96.896 Y142.009 E1.34575
G1 X97.637 Y141.803 E1.36022
G1 X98.395 Y141.674 E1.37468
G1 X99.248 Y141.625 E1.39075
G1 X102.247 Y141.625 E1.44717
G1 X103.015 Y141.665 E1.46163
G1 X103.775 Y141.784 E1.4761
G1 X104.518 Y141.982 E1.49057
G1 X105.237 Y142.256 E1.50504
G1 X105.923 Y142.603 E1.5195
G1 X106.57 Y143.019 E1.53397
G1 X107.17 Y143.5 E1.54844
G1 X107.717 Y144.041 E1.56291
G1 X108.205 Y144.636 E1.57738
G1 X108.628 Y145.278 E1.59185
G1 X108.983 Y145.961 E1.60633
G1 X109.264 Y146.676 E1.62078
G1 X109.47 Y147.418 E1.63526
G1 X109.598 Y148.176 E1.64972
G1 X109.647 Y149.025 E1.66572
G1 X109.647 Y150.914 E1.70125
G1 X109.607 Y151.682 E1.71572
G1 X109.488 Y152.442 E1.73019
G1 X109.45 Y152.684 E1.7348
G1 X109.499 Y153.524 E1.75062
G1 X109.503 Y156.744 E1.81119
G1 X109.464 Y157.512 E1.82566
G1 X109.345 Y158.272 E1.84013
G1 X109.149 Y159.015 E1.85458
G1 X108.876 Y159.735 E1.86907
G1 X108.53 Y160.422 E1.88354
G1 X108.114 Y161.069 E1.89801
G1 X107.634 Y161.669 E1.91246
G1 X107.094 Y162.217 E1.92693
G1 X106.499 Y162.705 E1.94141
G1 X105.858 Y163.13 E1.95587
G1 X105.176 Y163.485 E1.97034
G1 X104.46 Y163.768 E1.98482
G1 X103.719 Y163.974 E1.99929
G1 X102.961 Y164.103 E2.01375
G1 X102.107 Y164.153 E2.02984
G1 X100.164 Y164.154 E2.06639
G1 X99.396 Y164.114 E2.08086
G1 X98.636 Y163.995 E2.09533
G1 X97.892 Y163.798 E2.1098
G1 X97.173 Y163.525 E2.12427
G1 X96.487 Y163.178 E2.13873
G1 X95.84 Y162.762 E2.1532
G1 X95.807 Y162.736 E2.15399
G1 X95.162 Y162.317 E2.16846
G1 X94.564 Y161.833 E2.18293
G1 X94.072 Y161.389 E2.1954
G1 X93.526 Y160.847 E2.20987
G1 X93.039 Y160.251 E2.22435
G1 X92.617 Y159.608 E2.23881
G1 X92.264 Y158.925 E2.25328
G1 X91.984 Y158.209 E2.26774
G1 X91.78 Y157.467 E2.28221
G1 X91.653 Y156.708 E2.29669
G1 X91.606 Y155.884 E2.31221
G1 X91.602 Y153.062 E2.3653
G1 X91.641 Y152.294 E2.37976
G1 X91.759 Y151.534 E2.39423
G1 X91.862 Y151.145 E2.4018
G1 X91.849 Y150.918 E2.40608
G1 X91.848 Y149.029 E2.44161
G1 X91.888 Y148.261 E2.45607
G1 X92.007 Y147.501 E2.47055
G1 X92.204 Y146.757 E2.48502
G1 X92.477 Y146.039 E2.49947
G1 X92.824 Y145.352 E2.51395
G1 X93.24 Y144.705 E2.52842
G1 X93.721 Y144.105 E2.54288
G1 X94.261 Y143.557 E2.55736
G1 X94.856 Y143.069 E2.57183
G1 X95.498 Y142.646 E2.58629
G0 F3600 X95.243 Y143.284
G1 F1800 X95.879 Y142.889 E2.60038
G1 X96.553 Y142.565 E2.61444
G1 X97.258 Y142.314 E2.62852
G1 X97.985 Y142.14 E2.64258
G1 X98.727 Y142.044 E2.65666
G1 X99.248 Y142.025 E2.66646
G1 X102.247 Y142.025 E2.72288
G1 X102.994 Y142.065 E2.73695
G1 X103.732 Y142.184 E2.75101
G1 X104.454 Y142.382 E2.76509
G1 X105.15 Y142.655 E2.77915
G1 X105.813 Y143.002 E2.79323
G1 X106.436 Y143.417 E2.80731
G1 X107.01 Y143.896 E2.82137
G1 X107.531 Y144.433 E2.83545
G1 X107.99 Y145.023 E2.84951
G1 X108.385 Y145.659 E2.86359
G1 X108.709 Y146.333 E2.87766
G1 X108.959 Y147.038 E2.89173
G1 X109.133 Y147.766 E2.90581
G1 X109.228 Y148.508 E2.91988
G1 X109.247 Y149.025 E2.92961
G1 X109.247 Y150.914 E2.96515
G1 X109.207 Y151.661 E2.97922
G1 X109.088 Y152.399 E2.99328
G1 X109.029 Y152.615 E2.99749
G1 X109.08 Y153.016 E3.0051
G1 X109.099 Y153.524 E3.01466
G1 X109.103 Y156.744 E3.07523
G1 X109.064 Y157.491 E3.0893
G1 X108.945 Y158.23 E3.10338
G1 X108.749 Y158.952 E3.11745
G1 X108.476 Y159.648 E3.13151
G1 X108.131 Y160.312 E3.14559
G1 X107.717 Y160.935 E3.15966
G1 X107.238 Y161.51 E3.17374
G1 X106.701 Y162.031 E3.18781
G1 X106.112 Y162.491 E3.20187
G1 X105.477 Y162.886 E3.21594
G1 X104.803 Y163.211 E3.23001
G1 X104.098 Y163.463 E3.2441
G1 X103.371 Y163.637 E3.25816
G1 X102.629 Y163.733 E3.27223
G1 X102.107 Y163.753 E3.28206
G1 X100.164 Y163.754 E3.31861
G1 X99.417 Y163.714 E3.33268
G1 X98.678 Y163.595 E3.34676
G1 X97.956 Y163.398 E3.36084
G1 X97.26 Y163.125 E3.3749
G1 X96.597 Y162.779 E3.38897
G1 X95.989 Y162.375 E3.4027
G1 X95.919 Y162.338 E3.40419
G1 X95.298 Y161.92 E3.41827
G1 X94.726 Y161.438 E3.43234
G1 X94.233 Y160.994 E3.44482
G1 X93.713 Y160.455 E3.45891
G1 X93.255 Y159.864 E3.47297
G1 X92.862 Y159.228 E3.48703
G1 X92.539 Y158.553 E3.50111
G1 X92.29 Y157.848 E3.51517
G1 X92.118 Y157.12 E3.52925
G1 X92.024 Y156.377 E3.54333
G1 X92.006 Y155.884 E3.55261
G1 X92.002 Y153.062 E3.6057
G1 X92.041 Y152.315 E3.61977
G1 X92.159 Y151.576 E3.63384
G1 X92.26 Y151.207 E3.64104
G1 X92.249 Y150.918 E3.64648
G1 X92.248 Y149.029 E3.68201
G1 X92.288 Y148.282 E3.69609
G1 X92.407 Y147.543 E3.71017
G1 X92.604 Y146.822 E3.72423
G1 X92.877 Y146.125 E3.73831
G1 X93.223 Y145.462 E3.75237
G1 X93.637 Y144.839 E3.76644
G1 X94.116 Y144.264 E3.78052
G1 X94.653 Y143.744 E3.79458
G1 X95.243 Y143.284 E3.80866
G0 F3600 X95.629 Y143.506
G1 F1800 X96.258 Y143.141 E3.82234
G1 X96.922 Y142.848 E3.83599
G1 X97.615 Y142.63 E3.84965
G1 X98.328 Y142.489 E3.86332
G1 X99.248 Y142.425 E3.88067
G1 X102.247 Y142.425 E3.93708
G1 X102.972 Y142.465 E3.95074
G1 X103.689 Y142.584 E3.96441
G1 X104.388 Y142.782 E3.97808
G1 X105.061 Y143.055 E3.99174
G1 X105.7 Y143.4 E4.0054
G1 X106.297 Y143.814 E4.01907
G1 X106.845 Y144.29 E4.03272
G1 X107.338 Y144.824 E4.04639
G1 X107.768 Y145.409 E4.06005
G1 X108.132 Y146.038 E4.07372
G1 X108.425 Y146.703 E4.08739
G1 X108.643 Y147.396 E4.10106
G1 X108.783 Y148.108 E4.1147
G1 X108.847 Y149.025 E4.132
G1 X108.847 Y150.914 E4.16753
G1 X108.807 Y151.639 E4.18119
G1 X108.688 Y152.356 E4.19486
G1 X108.635 Y152.616 E4.19985
G1 X108.699 Y153.525 E4.21699
G1 X108.703 Y156.745 E4.27756
G1 X108.664 Y157.47 E4.29122
G1 X108.545 Y158.187 E4.30489
G1 X108.349 Y158.886 E4.31855
G1 X108.077 Y159.559 E4.3322
G1 X107.732 Y160.199 E4.34588
G1 X107.319 Y160.797 E4.35955
G1 X106.843 Y161.345 E4.3732
G1 X106.31 Y161.838 E4.38686
G1 X105.726 Y162.27 E4.40052
G1 X105.098 Y162.635 E4.41419
G1 X104.433 Y162.928 E4.42786
G1 X103.74 Y163.147 E4.44153
G1 X103.028 Y163.288 E4.45518
G1 X102.106 Y163.353 E4.47257
G1 X100.163 Y163.354 E4.50912
G1 X99.438 Y163.314 E4.52277
G1 X98.722 Y163.195 E4.53643
G1 X98.022 Y162.998 E4.55011
G1 X97.349 Y162.726 E4.56376
G1 X96.71 Y162.381 E4.57742
G1 X96.223 Y162.043 E4.58857
G1 X96.034 Y161.94 E4.59262
G1 X95.439 Y161.523 E4.60629
G1 X94.893 Y161.044 E4.61995
G1 X94.833 Y160.979 E4.62161
G1 X94.399 Y160.6 E4.63245
G1 X93.907 Y160.065 E4.64613
G1 X93.478 Y159.479 E4.65979
G1 X93.115 Y158.85 E4.67345
G1 X92.824 Y158.184 E4.68712
G1 X92.607 Y157.491 E4.70078
G1 X92.468 Y156.778 E4.71444
G1 X92.406 Y155.883 E4.73132
G1 X92.402 Y153.061 E4.7844
G1 X92.441 Y152.336 E4.79806
G1 X92.559 Y151.619 E4.81173
G1 X92.67 Y151.224 E4.81945
G1 X92.649 Y150.917 E4.82523
G1 X92.648 Y149.028 E4.86077
G1 X92.688 Y148.303 E4.87443
G1 X92.807 Y147.587 E4.88808
G1 X93.004 Y146.888 E4.90174
G1 X93.276 Y146.214 E4.91541
G1 X93.621 Y145.575 E4.92907
G1 X94.035 Y144.978 E4.94274
G1 X94.511 Y144.429 E4.95641
G1 X95.045 Y143.937 E4.97006
G1 X95.629 Y143.506 E4.98372
G0 F3600 X96.013 Y143.736
G1 F1800 X96.634 Y143.403 E4.99697
G1 X97.288 Y143.143 E5.01021
G1 X97.967 Y142.959 E5.02344
G1 X98.663 Y142.853 E5.03669
G1 X99.248 Y142.825 E5.0477
G1 X102.247 Y142.825 E5.10412
G1 X102.95 Y142.865 E5.11736
G1 X103.644 Y142.984 E5.13061
G1 X104.319 Y143.182 E5.14384
G1 X104.968 Y143.454 E5.15708
G1 X105.582 Y143.799 E5.17032
G1 X106.153 Y144.21 E5.18356
G1 X106.674 Y144.684 E5.19681
G1 X107.138 Y145.214 E5.21006
G1 X107.538 Y145.793 E5.22329
G1 X107.87 Y146.414 E5.23654
G1 X108.13 Y147.068 E5.24978
G1 X108.314 Y147.748 E5.26303
G1 X108.42 Y148.444 E5.27627
G1 X108.447 Y149.025 E5.28721
G1 X108.447 Y150.914 E5.32275
G1 X108.407 Y151.617 E5.33599
G1 X108.288 Y152.311 E5.34924
G1 X108.213 Y152.566 E5.35424
G1 X108.272 Y152.952 E5.36158
G1 X108.299 Y153.525 E5.37237
G1 X108.303 Y156.745 E5.43294
G1 X108.264 Y157.448 E5.44619
G1 X108.145 Y158.142 E5.45943
G1 X107.949 Y158.818 E5.47267
G1 X107.677 Y159.468 E5.48593
G1 X107.333 Y160.082 E5.49917
G1 X106.922 Y160.653 E5.5124
G1 X106.449 Y161.175 E5.52565
G1 X105.92 Y161.639 E5.53889
G1 X105.341 Y162.04 E5.55213
G1 X104.721 Y162.373 E5.56537
G1 X104.067 Y162.634 E5.57862
G1 X103.388 Y162.818 E5.59185
G1 X102.692 Y162.925 E5.6051
G1 X102.106 Y162.953 E5.61613
G1 X100.163 Y162.954 E5.65268
G1 X99.46 Y162.914 E5.66593
G1 X98.766 Y162.795 E5.67917
G1 X98.091 Y162.598 E5.6924
G1 X97.441 Y162.326 E5.70565
G1 X96.827 Y161.982 E5.71889
G1 X96.153 Y161.542 E5.73403
G1 X95.584 Y161.127 E5.74728
G1 X95.131 Y160.711 E5.75885
G1 X95.09 Y160.681 E5.7598
G1 X94.57 Y160.206 E5.77305
G1 X94.108 Y159.675 E5.78629
G1 X93.709 Y159.095 E5.79954
G1 X93.378 Y158.474 E5.81277
G1 X93.119 Y157.819 E5.82602
G1 X92.936 Y157.139 E5.83927
G1 X92.832 Y156.443 E5.85251
G1 X92.806 Y155.883 E5.86305
G1 X92.802 Y153.061 E5.91613
G1 X92.841 Y152.358 E5.92938
G1 X92.959 Y151.664 E5.94262
G1 X93.067 Y151.295 E5.94985
G1 X93.049 Y150.917 E5.95697
G1 X93.048 Y149.028 E5.9925
G1 X93.088 Y148.325 E6.00575
G1 X93.207 Y147.632 E6.01898
G1 X93.404 Y146.956 E6.03222
G1 X93.676 Y146.306 E6.04547
G1 X94.02 Y145.692 E6.05871
G1 X94.431 Y145.121 E6.07195
G1 X94.905 Y144.6 E6.0852
G1 X95.435 Y144.136 E6.09845
G1 X96.013 Y143.736 E6.11167
G0 F3600 X96.395 Y143.975
G1 F1800 X97.007 Y143.675 E6.12449
G1 X97.649 Y143.45 E6.13729
G1 X98.314 Y143.301 E6.15011
G1 X99.248 Y143.225 E6.16773
G1 X102.247 Y143.225 E6.22415
G1 X102.927 Y143.265 E6.23696
G1 X103.597 Y143.384 E6.24976
G1 X104.249 Y143.581 E6.26257
G1 X104.873 Y143.853 E6.27538
G1 X105.461 Y144.197 E6.28819
G1 X106.005 Y144.607 E6.301
G1 X106.496 Y145.078 E6.3138
G1 X106.93 Y145.603 E6.32662
G1 X107.299 Y146.175 E6.33942
G1 X107.598 Y146.787 E6.35223
G1 X107.823 Y147.429 E6.36503
G1 X107.972 Y148.094 E6.37785
G1 X108.047 Y149.025 E6.39542
G1 X108.047 Y150.914 E6.43095
G1 X108.007 Y151.594 E6.44376
G1 X107.888 Y152.264 E6.45656
G1 X107.808 Y152.53 E6.46179
G1 X107.824 Y152.602 E6.46318
G1 X107.899 Y153.526 E6.48061
G1 X107.903 Y156.746 E6.54118
G1 X107.864 Y157.426 E6.554
G1 X107.745 Y158.096 E6.5668
G1 X107.549 Y158.748 E6.5796
G1 X107.278 Y159.373 E6.59242
G1 X106.935 Y159.961 E6.60522
G1 X106.526 Y160.505 E6.61803
G1 X106.056 Y160.998 E6.63084
G1 X105.531 Y161.432 E6.64365
G1 X104.959 Y161.801 E6.65646
G1 X104.348 Y162.101 E6.66926
G1 X103.706 Y162.327 E6.68206
G1 X103.041 Y162.477 E6.69489
G1 X102.106 Y162.553 E6.71253
G1 X100.163 Y162.554 E6.74908
G1 X99.483 Y162.514 E6.76189
G1 X98.813 Y162.395 E6.77469
G1 X98.161 Y162.199 E6.7875
G1 X97.537 Y161.927 E6.8003
G1 X96.949 Y161.584 E6.81311
G1 X96.277 Y161.144 E6.82822
G1 X95.735 Y160.732 E6.84103
G1 X95.24 Y160.285 E6.85357
G1 X94.749 Y159.813 E6.86638
G1 X94.316 Y159.287 E6.8792
G1 X93.949 Y158.714 E6.892
G1 X93.651 Y158.102 E6.9048
G1 X93.427 Y157.459 E6.91761
G1 X93.279 Y156.794 E6.93043
G1 X93.206 Y155.882 E6.94764
G1 X93.202 Y153.06 E7.00072
G1 X93.241 Y152.38 E7.01353
G1 X93.359 Y151.71 E7.02633
G1 X93.481 Y151.308 E7.03423
G1 X93.449 Y150.917 E7.04161
G1 X93.448 Y149.028 E7.07714
G1 X93.488 Y148.348 E7.08996
G1 X93.607 Y147.678 E7.10276
G1 X93.803 Y147.026 E7.11556
G1 X94.075 Y146.402 E7.12837
G1 X94.418 Y145.814 E7.14117
G1 X94.828 Y145.27 E7.15399
G1 X95.298 Y144.778 E7.16679
G1 X95.823 Y144.344 E7.1796
G1 X96.395 Y143.975 E7.1924
G0 F3600 X96.21 Y144.56
G1 F1800 X96.775 Y144.225 E7.20476
G1 X97.376 Y143.96 E7.21711
G1 X98.005 Y143.77 E7.22947
G1 X98.652 Y143.658 E7.24183
G1 X99.248 Y143.625 E7.25305
G1 X102.247 Y143.625 E7.30947
G1 X102.903 Y143.665 E7.32183
G1 X103.549 Y143.784 E7.33419
G1 X104.176 Y143.981 E7.34655
G1 X104.774 Y144.253 E7.35891
G1 X105.335 Y144.595 E7.37126
G1 X105.85 Y145.003 E7.38362
G1 X106.312 Y145.47 E7.39598
G1 X106.713 Y145.99 E7.40833
G1 X107.049 Y146.554 E7.42068
G1 X107.313 Y147.156 E7.43305
G1 X107.503 Y147.785 E7.44541
G1 X107.614 Y148.432 E7.45775
G1 X107.647 Y149.025 E7.46893
G1 X107.647 Y150.914 E7.50446
G1 X107.607 Y151.57 E7.51682
G1 X107.488 Y152.216 E7.52918
G1 X107.393 Y152.517 E7.53512
G1 X107.466 Y152.94 E7.54319
G1 X107.499 Y153.526 E7.55423
G1 X107.503 Y156.746 E7.6148
G1 X107.464 Y157.402 E7.62716
G1 X107.345 Y158.048 E7.63952
G1 X107.149 Y158.675 E7.65188
G1 X106.878 Y159.274 E7.66424
G1 X106.537 Y159.835 E7.67659
G1 X106.13 Y160.351 E7.68895
G1 X105.663 Y160.813 E7.70131
G1 X105.144 Y161.215 E7.71366
G1 X104.579 Y161.552 E7.72603
G1 X103.978 Y161.817 E7.73839
G1 X103.35 Y162.007 E7.75073
G1 X102.702 Y162.12 E7.7631
G1 X102.106 Y162.153 E7.77433
G1 X100.163 Y162.154 E7.81088
G1 X99.507 Y162.114 E7.82324
G1 X98.861 Y161.995 E7.8356
G1 X98.234 Y161.799 E7.84796
G1 X97.636 Y161.528 E7.86031
G1 X97.075 Y161.186 E7.87267
G1 X96.928 Y161.07 E7.87619
G1 X96.405 Y160.747 E7.88775
G1 X95.892 Y160.337 E7.90011
G1 X95.395 Y159.889 E7.91269
G1 X94.934 Y159.421 E7.92505
G1 X94.534 Y158.9 E7.9374
G1 X94.199 Y158.335 E7.94976
G1 X93.936 Y157.733 E7.96212
